src/main/resources/icons/AllIcons/providers/firebird.svg

<svg xmlns="http://www.w3.org/2000/svg" width="16" height="16" viewBox="0 0 16 16">
  <defs>
    <linearGradient id="firebird-a" x1="50%" x2="50%" y1="100%" y2="0%">
      <stop offset="0%" stop-color="#F40A0B"/>
      <stop offset="100%" stop-color="#F5E710"/>
    </linearGradient>
    <linearGradient id="firebird-b" x1="50%" x2="50%" y1="100.109%" y2=".13%">
      <stop offset="0%" stop-color="#F40A0B"/>
      <stop offset="100%" stop-color="#F5E710"/>
    </linearGradient>
  </defs>
  <g fill="none" fill-rule="evenodd" transform="translate(1.278 1.238)">
    <path fill="url(#firebird-a)" d="M2.88344476,10.624136 C3.01194334,11.6435581 3.56591501,12.4116941 4.41400567,13.1655524 L4.10846459,13.0113541 C1.69840227,11.9747989 0.0136430595,9.5789745 0.0136430595,6.79202266 C0.0136430595,3.2511728 2.7463796,0.307127479 6.28151841,0.0444192635 C2.7463796,0.307127479 0.0136430595,3.2511728 0.0136430595,6.79202266 C0.0136430595,3.2511728 2.7463796,0.307127479 6.28151841,0.0444192635 C2.23238527,0.843966006 -1.64827195,5.52131445 2.88344476,10.624136 Z"/>
    <path fill="url(#firebird-b)" d="M12.1268159,4.63610198 C11.8212351,2.44591501 10.1393314,0.912498584 7.07535411,0.0329971671 C10.6904476,0.192906516 13.5431558,3.17407365 13.5431558,6.79202266 C13.5431558,10.5299037 10.7276091,13.4196941 7.06964306,13.5853144 C6.72412465,13.6024873 6.37860623,13.5424816 6.04165439,13.4368272 L6.04165439,5.8125779 C6.15301983,5.64410198 6.15301983,5.47562606 6.04165439,5.30715014 L6.04165439,3.68521246 L6.41572805,3.68521246 C6.27009632,3.58812465 6.14730878,3.51388102 6.04165439,3.46819263 L6.04165439,2.99988669 C8.00339943,3.74803399 8.91435127,3.83369972 8.77728612,3.24831728 C8.9485779,3.73090085 8.80013031,3.9507762 8.33182436,3.90223229 C7.79213031,3.8194221 7.45803399,3.85654391 7.32667989,4.01645326 C8.29470255,4.4961813 8.81155241,4.96163173 8.87722946,5.41280453 C8.96860623,6.17237394 8.6088102,7.00904249 7.79784136,7.92566572 C7.28670255,8.56248725 7.55226629,9.2392068 8.37751275,9.34767705 C10.9388385,9.22203399 12.1896374,7.64867989 12.1268159,4.63610198 Z M6.04165439,13.4368272 C5.25924079,13.1941473 4.55678187,12.705813 4.21411898,12.3660057 C3.60874788,11.7377904 3.19755241,10.7326459 3.04620963,9.28203966 C3.04620963,9.27347309 3.04335411,9.26486686 3.04335411,9.2563796 L3.04335411,8.7651898 C3.1375864,7.60013598 3.91428895,6.78060057 5.3791728,6.30943909 C5.7104136,6.14667422 5.93314448,5.98105382 6.04165439,5.8125779 L6.04165439,13.4368272 Z M6.04165439,5.30715014 C5.99596601,5.23290652 5.9245779,5.15866289 5.83605666,5.08156374 C5.75610198,5.00160907 5.58477054,4.92165439 5.32491785,4.84455524 C4.73096884,4.8274221 4.40829462,4.97590935 4.35689518,5.29287252 C3.34889518,4.84455524 3.32033994,4.33341643 4.26837394,3.76231161 C4.453983,3.69092351 4.72525779,3.6652238 5.08505382,3.67950142 C4.93656657,3.02273088 5.18785269,2.76858924 5.84176771,2.92278754 C5.91030028,2.94848725 5.97597734,2.97418697 6.04165439,2.99988669 L6.04165439,3.46819263 C5.74182436,3.32827195 5.62474788,3.39966006 5.68756941,3.68521246 L6.04165439,3.68521246 L6.04165439,5.30715014 Z"/>
  </g>
</svg>

<svg xmlns="http://www.w3.org/2000/svg" width="16" height="16" viewBox="0 0 16 16"><rect id="frame" width="16" height="16" fill="none"/><defs><linearGradient id="a" x1="50%" x2="50%" y1="100%" y2="0%"><stop offset="0%" stop-color="#F40A0B"/><stop offset="100%" stop-color="#F5E710"/></linearGradient><linearGradient id="b" x1="50%" x2="50%" y1="100.109%" y2=".13%"><stop offset="0%" stop-color="#F40A0B"/><stop offset="100%" stop-color="#F5E710"/></linearGradient></defs><g fill="none" fill-rule="evenodd"><path fill="url(#a)" d="M2.883 10.624c.129 1.02.683 1.788 1.531 2.542l-.306-.155A6.768 6.768 0 1 1 6.282.044c-4.05.8-7.93 5.477-3.399 10.58z" transform="translate(1.278 1.238)"/><path fill="url(#b)" d="M12.127 4.636C11.82 2.446 10.139.912 7.075.033a6.77 6.77 0 0 1 6.468 6.759c0 3.738-2.815 6.628-6.473 6.793a2.951 2.951 0 0 1-1.028-.148V5.813a.424.424 0 0 0 0-.506V3.685h.374a2.532 2.532 0 0 0-.374-.217V3c1.961.748 2.872.834 2.735.248.172.483.023.703-.445.654-.54-.083-.874-.045-1.005.114.968.48 1.485.946 1.55 1.397.092.76-.268 1.596-1.08 2.513-.51.636-.245 1.313.58 1.422 2.562-.126 3.813-1.7 3.75-4.712zm-6.085 8.8c-.783-.242-1.485-.73-1.828-1.07-.605-.628-1.016-1.633-1.168-3.084 0-.009-.003-.017-.003-.026v-.49C3.138 7.6 3.914 6.78 5.38 6.308c.331-.162.554-.328.663-.496v7.624zm0-8.129a1.044 1.044 0 0 0-.206-.225c-.08-.08-.251-.16-.511-.237-.594-.018-.917.13-.968.448-1.008-.448-1.037-.96-.089-1.53.186-.072.457-.098.817-.083-.148-.657.103-.911.757-.757.068.025.134.051.2.077v.468c-.3-.14-.417-.068-.354.217h.354v1.622z" transform="translate(1.278 1.238)"/></g></svg>
